svg/l/NF.svg

<svg width="32" height="24" viewBox="0 0 32 24" fill="none" xmlns="http://www.w3.org/2000/svg">
<g clip-path="url(#clip0_270_67525)">
<rect width="32" height="24" fill="white"/>
<path fill-rule="evenodd" clip-rule="evenodd" d="M22 0H32V24H22V0Z" fill="#409100"/>
<path fill-rule="evenodd" clip-rule="evenodd" d="M0 0H10V24H0V0Z" fill="#409100"/>
<path fill-rule="evenodd" clip-rule="evenodd" d="M10 0H22V24H10V0Z" fill="white"/>
<path fill-rule="evenodd" clip-rule="evenodd" d="M12.6954 18.7705C11.1397 19.0236 10.6492 18.2643 10.6492 18.2643L10.8451 18.1033C10.9767 17.9953 11.4199 18.0324 11.8504 18.0684C12.0608 18.086 12.2683 18.1033 12.4347 18.1033C12.6775 18.1033 12.9569 18.0667 13.248 18.0286C13.5645 17.9871 13.8948 17.9438 14.2069 17.9438C14.806 17.9438 12.4347 17.1603 11.9279 17.6408C11.4212 18.1213 10 17.4181 10 17.0172C10 16.7436 10.5232 16.8433 11.0004 16.9343C11.2226 16.9767 11.4348 17.0172 11.5797 17.0172C12.0355 17.0172 11.1238 16.1279 10.6492 16.1279C10.1747 16.1279 11.1238 15.9213 11.5797 15.9213C11.8392 15.9213 12.0804 15.9883 12.2882 16.046C12.4452 16.0896 12.5831 16.1279 12.6954 16.1279C12.956 16.1279 11.3865 15.4533 11.1238 15.4533H12.4347C12.8846 15.4533 12.9939 15.5167 13.0974 15.5768C13.1907 15.6309 13.2793 15.6823 13.6078 15.6823C14.3012 15.6823 13.9215 15.303 13.9215 15.303C13.9215 15.303 11.5797 15.0599 11.1238 14.7241C10.8156 14.497 11.6427 14.577 12.4246 14.6527L12.4246 14.6527C12.799 14.6889 13.163 14.7241 13.3869 14.7241C14.0785 14.7241 11.9279 14.2304 11.5797 14.2304H13.1645C13.5115 14.2304 13.8924 14.342 14.292 14.4591L14.292 14.4591C14.733 14.5882 15.1968 14.7241 15.6631 14.7241C16.1546 14.7241 15.1946 14.4309 14.1401 14.1088L14.1401 14.1088C13.2879 13.8485 12.374 13.5694 12.1144 13.4108C11.8457 13.2468 12.0501 13.3103 12.4223 13.426C12.855 13.5605 13.5146 13.7655 13.9215 13.7655C14.6785 13.7655 12.9144 13.0229 12.4347 13.0229C11.955 13.0229 11.4958 12.807 11.9279 12.6074C12.1933 12.4849 12.8843 12.6695 13.4862 12.8302C13.8646 12.9313 14.2078 13.0229 14.3877 13.0229C14.6059 13.0229 14.7672 13.1079 14.9389 13.1983C15.134 13.301 15.3425 13.4108 15.6631 13.4108C16.2656 13.4108 14.3877 12.6074 13.6078 12.6074C12.8279 12.6074 12.6954 12.2291 13.1645 12.2291C13.6337 12.2291 12.1144 11.5845 12.1144 11.5845C12.1144 11.5845 11.8941 11.1273 12.4347 11.1273H13.1645C13.4146 11.1273 12.9144 10.3344 12.4347 10.3344C11.955 10.3344 12.3734 10.0949 13.1645 10.0949C13.6456 10.0949 13.9271 10.2609 14.2657 10.4607C14.484 10.5895 14.726 10.7323 15.0606 10.8536C15.9142 11.1634 15.2703 10.3344 15.0606 10.3344C14.8508 10.3344 12.6954 9.65875 12.6954 9.65875C12.6954 9.65875 12.9144 9.40987 12.6954 9.07096C12.5301 8.81522 13.218 8.94546 13.6368 9.02477C13.773 9.05056 13.8808 9.07096 13.9215 9.07096C14.0207 9.07096 14.3054 9.14174 14.6551 9.22865L14.6552 9.22865C14.8912 9.2873 15.1567 9.35331 15.4148 9.40987C16.0552 9.55024 13.2393 8.37579 12.9144 8.37579C12.5895 8.37579 13.6078 8.18281 14.2069 8.18281C14.5015 8.18281 14.6436 8.22946 14.788 8.27689C14.9374 8.32593 15.0892 8.37579 15.4148 8.37579C16.0552 8.37579 14.2069 7.68936 13.6078 7.68936C13.0087 7.68936 13.3629 7.09828 13.6078 7.09828C13.7032 7.09828 13.9445 7.13 14.2392 7.16873L14.2392 7.16873L14.2392 7.16873H14.2392L14.2392 7.16873L14.2392 7.16874L14.2393 7.16874C14.7015 7.22949 15.2952 7.3075 15.6631 7.3075C15.9432 7.3075 15.6872 7.22901 15.3149 7.11486L15.3149 7.11485L15.3148 7.11485C14.8863 6.98345 14.3037 6.8048 14.2069 6.64419C14.1002 6.46691 14.3174 6.49904 14.6963 6.55505L14.6963 6.55505C14.7648 6.56517 14.8385 6.57608 14.9166 6.58667C15.1749 6.72201 15.3907 6.80944 15.4222 6.70621C15.4313 6.67652 15.4516 6.65529 15.4774 6.64003C15.5384 6.6427 15.6004 6.64419 15.6631 6.64419C16.0202 6.64419 15.8552 6.58976 15.5114 6.52465L15.4806 6.51523C14.9591 6.35579 13.8305 6.01492 14.2527 6.22527C14.3354 6.26647 14.4283 6.3173 14.5247 6.37099C14.2402 6.33327 14.001 6.30714 13.9215 6.30714C13.6361 6.30714 13.3499 6.08661 13.9215 6.08661H15.0606C14.7063 6.08661 14.2069 6.08661 14.2069 5.80834C14.2069 5.61895 14.6024 5.68736 14.9666 5.75038C15.1376 5.77995 15.3016 5.80834 15.4148 5.80834C15.769 5.80834 15.8571 5.80834 15.6631 5.64279C15.4788 5.48561 14.8432 5.48638 14.4485 5.48686L14.3877 5.48691C14.0011 5.48691 15.2075 5.28488 15.6631 5.28488C15.7396 5.28488 15.7734 5.28488 15.7735 5.28344C15.7735 5.28229 15.7525 5.28025 15.7148 5.27658C15.5166 5.25731 14.8581 5.19327 14.3877 4.98051C13.967 4.79017 14.3356 4.83788 14.8181 4.90035C15.1073 4.93778 15.4373 4.98051 15.6631 4.98051C16.2656 4.98051 15.4148 4.57533 14.7743 4.57533C14.2603 4.57533 14.5052 4.43491 14.8231 4.2527L14.8231 4.2527C14.9012 4.2079 14.9838 4.16057 15.0606 4.11219C15.2917 3.96653 15.4608 4.21502 15.5601 4.36082C15.6279 4.46044 15.6631 4.51212 15.6631 4.35737C15.6631 4.20633 15.6241 4.11048 15.5925 4.06011C15.6094 4.0743 15.6324 4.09176 15.6631 4.11219C15.9113 4.27784 15.6631 3.67762 15.6631 3.67762C15.6631 3.67762 15.4148 3.51186 15.6631 3.51186C15.9113 3.51186 15.5832 3.22691 15.4148 3.22691C15.2464 3.22691 15.8571 2.95429 15.8571 2.95429L15.9917 1.79999C15.9917 1.79999 16.3246 3.05777 16.3246 3.22691V4.11219C16.3246 4.32294 16.1756 4.46999 16.0759 4.56838C15.9509 4.69176 15.9035 4.73861 16.3246 4.73861C17.0816 4.73861 17.0494 4.98051 16.5886 4.98051C16.1278 4.98051 16.7209 5.28488 17.5483 5.28488C18.3756 5.28488 16.8544 5.64279 16.3246 5.64279C15.7948 5.64279 16.8544 5.80834 17.5483 5.80834C18.0168 5.80834 17.5362 5.97027 17.0928 6.11968C16.8796 6.19153 16.6749 6.26048 16.5886 6.30714C16.451 6.38146 16.7901 6.37888 17.1494 6.35907C16.9606 6.41471 16.7731 6.47173 16.6308 6.51523C16.4582 6.568 16.3998 6.58584 16.4011 6.59302C16.4018 6.59668 16.418 6.59756 16.4425 6.5989C16.515 6.60284 16.66 6.61072 16.6892 6.70621C16.7327 6.84872 17.1274 6.62788 17.5004 6.4192C17.5601 6.38578 17.6193 6.35267 17.6764 6.32141C17.7744 6.31311 17.8374 6.30714 17.8374 6.30714C17.8374 6.30714 18.1803 6.70276 18.1803 6.94435C18.1803 7.08526 17.7293 7.12678 17.2482 7.17107L17.1997 7.17554C17.2239 7.14378 17.1216 7.1604 16.9713 7.19756C16.7218 7.22323 16.4862 7.25501 16.3246 7.3075C16.1703 7.35764 16.1963 7.37857 16.3218 7.38305L16.2877 7.39346C16.1695 7.42959 16.129 7.44198 16.1299 7.4491C16.1304 7.45282 16.1421 7.4551 16.1601 7.45858H16.1601C16.2123 7.4687 16.3169 7.48895 16.3461 7.58444C16.3896 7.72695 16.6532 7.5462 16.9023 7.3754L16.9258 7.35926C17.0038 7.35422 17.0836 7.34882 17.1625 7.34349L17.1627 7.34347L17.1627 7.34347C17.4338 7.32514 17.6945 7.3075 17.8374 7.3075C18.284 7.3075 17.3909 7.52279 17.0494 7.52279C16.9041 7.52279 17.0872 7.5557 17.3664 7.6059C17.7435 7.67367 18.2959 7.77295 18.4519 7.86528C18.6384 7.97564 18.0907 7.93445 17.6034 7.8978L17.6034 7.89779C17.381 7.88107 17.1711 7.86528 17.0494 7.86528C16.6608 7.86528 16.5886 8.18281 16.8544 8.18281H17.8374C18.2092 8.18281 18.5963 8.75159 18.4519 8.75159C18.4082 8.75159 18.3145 8.7809 18.1838 8.82176C17.8833 8.91579 17.3872 9.07096 16.8544 9.07096C16.0901 9.07096 17.8374 9.07179 18.1803 9.07096C18.5232 9.07014 19.5014 9.07179 19.5014 9.40987C19.5014 9.62017 19.3162 9.66637 19.0735 9.72691C18.9261 9.76369 18.7575 9.80576 18.5963 9.89315C18.1698 10.1244 19.8718 10.3344 19.8718 10.3344C19.8718 10.3344 19.1982 10.5439 18.8703 10.5439C18.5425 10.5439 19.0228 10.8536 19.8718 10.8536C20.5287 10.8536 20.3358 11.2106 20.2149 11.4344L20.2149 11.4344C20.1795 11.4999 20.1503 11.554 20.1503 11.5845C20.1503 11.6433 20.026 11.6941 19.8461 11.7677C19.6149 11.8622 19.2919 11.9942 19.0228 12.2291C18.7132 12.4993 19.0894 12.4199 19.5144 12.3301L19.5144 12.3301C19.7463 12.2811 19.9927 12.2291 20.1503 12.2291C20.5965 12.2291 20.7866 12.2477 20.6413 12.4641C20.496 12.6805 19.1982 13.0229 18.8703 13.0229H20.6413C21.1323 13.0229 20.5038 13.4108 19.8718 13.4108C19.448 13.4108 19.2108 13.5703 19.0545 13.6754C18.9778 13.7271 18.9205 13.7655 18.8703 13.7655H20.1503C20.2155 13.7655 20.2872 13.6613 20.3529 13.5658C20.4106 13.4818 20.4637 13.4045 20.5038 13.4108C21.0828 13.5017 20.823 14.2304 20.5038 14.2304C20.1374 14.2304 19.0228 14.4761 19.1982 14.7241C19.283 14.8441 19.4156 14.7899 19.6306 14.7019C19.8598 14.6082 20.1827 14.4761 20.6413 14.4761C21.53 14.4761 20.7268 14.7241 20.5038 14.7241C20.2807 14.7241 19.3372 14.9042 19.0228 15.0599C18.8129 15.1638 19.5432 15.129 20.2696 15.0944C20.6314 15.0771 20.9921 15.0599 21.2353 15.0599C21.9669 15.0599 19.5014 15.6823 18.5963 15.6823C17.6912 15.6823 19.1982 15.9213 19.5014 15.9213C19.6177 15.9213 19.8433 15.9517 20.1215 15.9892L20.1215 15.9892H20.1215C20.5686 16.0494 21.1512 16.1279 21.6338 16.1279C22.4167 16.1279 20.8509 16.6436 20.1503 16.6436C20.096 16.6436 20.0425 16.6434 19.9901 16.6432C19.3654 16.6406 18.8957 16.6387 19.1982 17.0172C19.3663 17.2276 19.926 17.1703 20.5101 17.1105C21.0646 17.0538 21.6411 16.9947 21.9257 17.1603C22.4371 17.4578 20.1745 17.4321 19.1983 17.421H19.1983H19.1983C19.0587 17.4194 18.9454 17.4181 18.8703 17.4181C18.2701 17.4181 19.4706 17.6408 20.5038 17.6408L20.6341 17.6408C21.5573 17.6402 21.7761 17.64 21.7761 17.9438C21.7761 18.2106 19.7651 18.1416 18.9257 18.1128C18.7665 18.1074 18.6494 18.1033 18.5963 18.1033C18.4355 18.1033 18.3423 18.2005 18.2459 18.301C18.1426 18.4088 18.0355 18.5205 17.8374 18.5205C17.6743 18.5205 17.5977 18.4161 17.5279 18.3209C17.4338 18.1927 17.3519 18.0813 17.0875 18.2643C16.6267 18.5831 17.5483 21.8 17.5483 21.8H15.0606V18.7705C15.0606 18.7705 14.251 18.5174 12.6954 18.7705ZM15.5534 4.01645C15.5499 4.01717 15.5595 4.03245 15.5925 4.06011C15.5733 4.02956 15.5568 4.01573 15.5534 4.01645ZM14.6878 16.0236C14.2948 15.8757 15.2908 15.8681 15.7516 15.8681C15.9002 15.8681 15.9529 15.8681 15.9562 15.8808C15.958 15.8878 15.9449 15.8987 15.9244 15.9156C15.8668 15.9631 15.7516 16.0582 15.7516 16.2483C15.7516 16.532 15.3782 16.3496 15.0253 16.1773L15.0253 16.1773L15.0253 16.1773L15.0252 16.1772C14.9052 16.1186 14.7876 16.0612 14.6878 16.0236ZM15.5022 14.8656C15.0415 14.8656 14.0454 14.8732 14.4385 15.0212C14.5382 15.0588 14.6558 15.1162 14.7759 15.1748L14.7759 15.1748L14.7759 15.1748L14.7759 15.1748C15.1288 15.3472 15.5022 15.5296 15.5022 15.2458C15.5022 15.0557 15.6174 14.9607 15.675 14.9132C15.6955 14.8963 15.7087 14.8854 15.7069 14.8784C15.7036 14.8656 15.6508 14.8656 15.5022 14.8656ZM14.6713 14.1955C14.3504 14.1178 15.1636 14.1138 15.5398 14.1138C15.6634 14.1138 15.7058 14.1138 15.707 14.1209C15.7076 14.1246 15.697 14.1302 15.6809 14.1388C15.6339 14.1637 15.5398 14.2137 15.5398 14.3135C15.5398 14.4625 15.2349 14.3667 14.9468 14.2762C14.8488 14.2454 14.7528 14.2153 14.6713 14.1955ZM15.4806 11.0262C14.9591 10.8667 13.8305 10.5258 14.2527 10.7362C14.3599 10.7896 14.4842 10.8591 14.611 10.9301C14.984 11.1388 15.3787 11.3596 15.4222 11.2171C15.4514 11.1216 15.5964 11.1138 15.6689 11.1098C15.6934 11.1085 15.7096 11.1076 15.7103 11.1039C15.7116 11.0968 15.6532 11.0789 15.4806 11.0262ZM14.2527 9.73376C13.8305 9.52341 14.9591 9.86428 15.4806 10.0237C15.6532 10.0765 15.7116 10.0943 15.7103 10.1015C15.7096 10.1052 15.6934 10.1061 15.6689 10.1074C15.5964 10.1113 15.4514 10.1192 15.4222 10.2147C15.3787 10.3572 14.984 10.1364 14.611 9.9277L14.611 9.9277C14.4842 9.85672 14.3598 9.78715 14.2527 9.73376ZM15.4806 8.77069C14.9591 8.61125 13.8305 8.27038 14.2527 8.48073C14.3599 8.53412 14.4842 8.60369 14.611 8.67467C14.984 8.88334 15.3787 9.10418 15.4222 8.96167C15.4514 8.86618 15.5964 8.8583 15.6689 8.85436C15.6934 8.85303 15.7096 8.85214 15.7103 8.84848C15.7116 8.8413 15.6532 8.82346 15.4806 8.77069ZM16.6092 15.6175C17.0699 15.6175 18.066 15.6251 17.6729 15.773C17.5732 15.8106 17.4555 15.868 17.3355 15.9266L17.3355 15.9267L17.3355 15.9267C16.9826 16.099 16.6092 16.2814 16.6092 15.9977C16.6092 15.8076 16.494 15.7125 16.4364 15.665C16.4159 15.6481 16.4027 15.6372 16.4045 15.6302C16.4078 15.6175 16.4606 15.6175 16.6092 15.6175ZM17.6729 15.0212C18.066 14.8732 17.0699 14.8656 16.6092 14.8656C16.4606 14.8656 16.4078 14.8656 16.4045 14.8784C16.4027 14.8854 16.4159 14.8963 16.4364 14.9132C16.494 14.9607 16.6092 15.0557 16.6092 15.2458C16.6092 15.5296 16.9826 15.3472 17.3355 15.1748L17.3355 15.1748L17.3355 15.1748L17.3355 15.1748C17.4556 15.1162 17.5732 15.0588 17.6729 15.0212ZM18.2894 13.2877L18.2895 13.2877C18.3305 13.2782 18.3319 13.2779 18.2784 13.2908C18.1724 13.3165 17.9505 13.4038 17.7006 13.5021L17.7006 13.5021L17.7006 13.5021C17.1935 13.7015 16.5716 13.9461 16.5716 13.8123C16.5716 13.7125 16.4775 13.6625 16.4305 13.6376C16.4144 13.629 16.4038 13.6234 16.4044 13.6197C16.4056 13.6126 16.448 13.6126 16.5716 13.6126C16.885 13.6126 18.084 13.3352 18.2894 13.2877ZM17.8587 10.235C18.2809 10.0246 17.1523 10.3655 16.6308 10.5249C16.4582 10.5777 16.3998 10.5955 16.4011 10.6027C16.4018 10.6064 16.418 10.6073 16.4425 10.6086C16.515 10.6125 16.66 10.6204 16.6892 10.7159C16.7327 10.8584 17.1274 10.6376 17.5004 10.4289C17.6272 10.3579 17.7515 10.2884 17.8587 10.235ZM16.6308 11.5274C17.1523 11.3679 18.2809 11.0271 17.8587 11.2374C17.7515 11.2908 17.6272 11.3604 17.5004 11.4313C17.1274 11.64 16.7327 11.8609 16.6892 11.7183C16.66 11.6229 16.515 11.615 16.4425 11.611C16.418 11.6097 16.4018 11.6088 16.4011 11.6052C16.3998 11.598 16.4582 11.5801 16.6308 11.5274ZM17.8587 9.23255C18.2809 9.0222 17.1523 9.36307 16.6308 9.52251C16.4582 9.57528 16.3998 9.59312 16.4011 9.6003C16.4018 9.60396 16.418 9.60485 16.4425 9.60618C16.515 9.61012 16.66 9.618 16.6892 9.71349C16.7327 9.856 17.1274 9.63516 17.5003 9.42649C17.6272 9.35551 17.7515 9.28594 17.8587 9.23255ZM16.2877 8.6465C16.6474 8.53651 17.4263 8.30257 17.1421 8.47072C17.07 8.5134 16.987 8.57034 16.9023 8.62844C16.6532 8.79923 16.3896 8.97998 16.3461 8.83747C16.3169 8.74198 16.2123 8.72174 16.1601 8.71161H16.1601C16.1421 8.70814 16.1304 8.70586 16.1299 8.70214C16.129 8.69501 16.1695 8.68262 16.2877 8.6465ZM16.5172 12.4604C16.1041 12.4604 16.5172 12.134 16.5172 12.134H16.7299C16.8029 12.134 16.8681 12.1039 16.9538 12.0644C17.1176 11.9889 17.3562 11.8788 17.8673 11.8788C18.6456 11.8788 16.9303 12.4604 16.5172 12.4604Z" fill="#409100"/>
</g>
<defs>
<clipPath id="clip0_270_67525">
<rect width="32" height="24" fill="white"/>
</clipPath>
</defs>
</svg>

<svg width="32" height="24" fill="none" xmlns="http://www.w3.org/2000/svg">
  <mask id="a" maskUnits="userSpaceOnUse" x="0" y="0" width="32" height="24">
    <path fill="#fff" d="M0 0h32v24H0z"/>
  </mask>
  <g mask="url(#a)" fill-rule="evenodd" clip-rule="evenodd">
    <path d="M22 0h10v24H22V0zM0 0h10v24H0V0z" fill="#409100"/>
    <path d="M10 0h12v24H10V0z" fill="#fff"/>
    <path d="M12.695 18.77c-1.555.254-2.046-.506-2.046-.506l.196-.16c.132-.109.575-.072 1.005-.036.21.018.418.035.585.035.242 0 .522-.036.813-.074a7.55 7.55 0 01.959-.085c.599 0-1.772-.784-2.28-.303-.506.48-1.927-.223-1.927-.624 0-.273.523-.174 1-.083.223.043.435.083.58.083.456 0-.456-.89-.93-.89-.475 0 .474-.206.93-.206.26 0 .5.067.708.125.157.044.295.082.407.082.261 0-1.309-.675-1.571-.675h1.31c.45 0 .56.064.663.124.094.054.182.105.51.105.694 0 .315-.379.315-.379s-2.342-.243-2.798-.579c-.308-.227.519-.147 1.3-.071.375.036.739.071.963.071.691 0-1.46-.494-1.807-.494h1.585c.347 0 .727.112 1.127.23.441.128.905.264 1.371.264.492 0-.468-.293-1.523-.615-.852-.26-1.766-.54-2.026-.698-.268-.164-.064-.1.308.015.433.134 1.093.34 1.5.34.756 0-1.008-.743-1.487-.743-.48 0-.94-.216-.507-.416.265-.122.956.063 1.558.223.379.101.722.193.902.193.218 0 .38.085.55.175.196.103.404.213.725.213.603 0-1.275-.804-2.055-.804-.78 0-.913-.378-.444-.378.47 0-1.05-.644-1.05-.644s-.22-.458.32-.458h.73c.25 0-.25-.793-.73-.793-.479 0-.06-.24.73-.24.482 0 .763.167 1.102.367.218.128.46.271.795.393.853.31.21-.52 0-.52s-2.366-.675-2.366-.675.22-.25 0-.588c-.165-.256.523-.126.942-.046.136.026.244.046.284.046.1 0 .384.07.734.158.236.058.502.124.76.18.64.141-2.176-1.033-2.5-1.033-.325 0 .693-.193 1.292-.193.294 0 .437.046.581.094.15.049.301.099.627.099.64 0-1.208-.687-1.807-.687-.6 0-.245-.59 0-.59.095 0 .336.031.631.07.462.06 1.056.139 1.424.139.28 0 .024-.079-.348-.193-.429-.132-1.011-.31-1.108-.47-.107-.178.11-.146.49-.09l.22.032c.258.135.474.222.505.12.01-.03.03-.052.055-.067.061.003.123.004.186.004.357 0 .192-.054-.152-.12l-.03-.009c-.522-.16-1.65-.5-1.228-.29.082.041.175.092.272.146a7.193 7.193 0 00-.604-.064c-.285 0-.571-.22 0-.22h1.14c-.355 0-.854 0-.854-.279 0-.189.395-.12.76-.058.17.03.335.058.448.058.354 0 .442 0 .248-.165-.184-.157-.82-.157-1.215-.156h-.06c-.387 0 .82-.202 1.275-.202.077 0 .11 0 .11-.002l-.058-.006c-.198-.02-.857-.084-1.327-.296-.421-.19-.052-.143.43-.08.29.037.62.08.845.08.603 0-.248-.406-.889-.406-.514 0-.269-.14.05-.322.077-.045.16-.092.237-.14.23-.146.4.102.5.248.067.1.102.151.102-.004a.559.559 0 00-.07-.297c.016.014.04.032.07.052.248.166 0-.434 0-.434s-.248-.166 0-.166-.08-.285-.248-.285c-.169 0 .442-.273.442-.273l.135-1.154s.333 1.258.333 1.427v.885c0 .21-.15.358-.25.456-.124.124-.171.17.25.17.757 0 .724.243.264.243-.461 0 .132.304.96.304.827 0-.695.358-1.224.358-.53 0 .53.165 1.223.165.469 0-.012.162-.455.312-.213.072-.418.14-.504.187-.138.074.201.072.56.052l-.518.156c-.173.053-.231.07-.23.078 0 .004.017.005.041.006.073.004.218.012.247.107.044.143.438-.078.811-.287l.176-.098.161-.014s.343.396.343.637c0 .141-.45.183-.932.227l-.048.005c.024-.032-.078-.016-.229.022a3.46 3.46 0 00-.646.11c-.155.05-.129.07-.003.075l-.034.01c-.119.037-.159.049-.158.056 0 .004.012.006.03.01.052.01.157.03.186.125.044.143.307-.038.556-.209l.024-.016.237-.016c.27-.018.532-.035.674-.035.447 0-.446.215-.788.215-.145 0 .038.033.317.083.378.068.93.167 1.086.26.186.11-.361.068-.849.032a9.143 9.143 0 00-.554-.033c-.388 0-.46.318-.195.318h.983c.372 0 .76.569.615.569-.044 0-.138.029-.268.07-.3.094-.797.249-1.33.249h1.326c.343 0 1.321 0 1.321.339 0 .21-.185.256-.428.317a1.972 1.972 0 00-.477.166c-.426.231 1.276.441 1.276.441s-.674.21-1.002.21c-.328 0 .153.31 1.002.31.657 0 .464.357.343.58a.459.459 0 00-.065.15c0 .06-.124.11-.304.184-.231.094-.554.226-.823.461-.31.27.066.19.491.101.232-.049.479-.1.636-.1.447 0 .637.018.491.234-.145.216-1.443.559-1.77.559h1.77c.491 0-.137.388-.77.388-.423 0-.66.16-.816.264-.077.052-.134.09-.185.09h1.28c.066 0 .137-.104.203-.2.058-.083.11-.16.15-.154.58.09.32.82 0 .82-.366 0-1.48.245-1.305.493.085.12.218.066.433-.022.229-.094.552-.226 1.01-.226.889 0 .086.248-.137.248s-1.167.18-1.481.336c-.21.104.52.069 1.247.034.361-.017.722-.034.965-.034.732 0-1.734.622-2.639.622-.905 0 .602.24.905.24.117 0 .342.03.62.067.448.06 1.03.139 1.513.139.783 0-.783.516-1.484.516h-.16c-.625-.003-1.094-.005-.792.373.168.21.728.153 1.312.093.555-.056 1.131-.115 1.416.05.511.298-1.752.272-2.728.261l-.328-.003c-.6 0 .6.223 1.634.223h.13c.923 0 1.142-.001 1.142.303 0 .267-2.01.198-2.85.169-.16-.006-.277-.01-.33-.01-.16 0-.254.098-.35.198-.103.108-.21.22-.409.22-.163 0-.24-.105-.31-.2-.093-.128-.175-.24-.44-.057-.46.32.461 3.536.461 3.536h-2.487v-3.03s-.81-.253-2.366 0zm2.858-14.754c-.003.001.006.016.04.044-.02-.03-.036-.044-.04-.044zm-.865 12.008c-.393-.148.603-.156 1.064-.156.148 0 .2 0 .204.013.002.007-.011.018-.032.035a.409.409 0 00-.172.332c0 .284-.374.102-.727-.07a4.253 4.253 0 00-.337-.154zm.814-1.158c-.46 0-1.457.007-1.064.155.1.038.218.095.338.154.353.172.726.355.726.07 0-.19.115-.284.173-.332.02-.017.034-.028.032-.035-.003-.012-.056-.012-.205-.012zm-.83-.67c-.322-.078.492-.082.868-.082.123 0 .166 0 .167.007 0 .004-.01.01-.026.018-.047.025-.141.075-.141.175 0 .149-.305.053-.593-.038a4.632 4.632 0 00-.276-.08zm.809-3.17c-.522-.16-1.65-.5-1.228-.29.107.054.231.123.358.194.373.209.768.43.811.287.03-.095.174-.103.247-.107.024-.002.04-.002.041-.006.002-.007-.057-.025-.23-.078zm-1.228-1.292c-.422-.21.706.13 1.228.29.172.053.23.07.23.078-.001.003-.018.004-.042.005-.073.004-.218.012-.247.108-.043.142-.438-.079-.811-.287a9.064 9.064 0 00-.358-.194zm1.228-.963c-.522-.16-1.65-.5-1.228-.29.107.053.231.123.358.194.373.208.768.43.811.287.03-.096.174-.104.247-.108.024-.001.04-.002.041-.006.002-.007-.057-.025-.23-.077zm1.128 6.846c.46 0 1.457.008 1.064.156a4.27 4.27 0 00-.337.154c-.353.172-.727.354-.727.07a.409.409 0 00-.173-.332c-.02-.017-.033-.028-.032-.035.004-.013.057-.013.205-.013zm1.064-.596c.393-.148-.603-.155-1.064-.155-.148 0-.201 0-.205.012-.001.007.012.018.032.035a.408.408 0 01.173.333c0 .284.374.101.726-.071a4.24 4.24 0 01.338-.154zm.616-1.733a.448.448 0 01-.01.003c-.107.025-.328.113-.578.211-.508.2-1.13.444-1.13.31 0-.1-.094-.15-.14-.174-.017-.009-.027-.015-.027-.018.002-.007.044-.007.168-.007.313 0 1.512-.278 1.717-.325zm-.43-3.053c.422-.21-.707.13-1.228.29-.173.053-.231.07-.23.078 0 .003.017.004.041.006.073.004.218.011.247.107.044.142.438-.078.811-.287.127-.071.252-.14.359-.194zm-1.228 1.292c.521-.16 1.65-.5 1.228-.29a9.353 9.353 0 00-.359.194c-.373.209-.767.43-.81.287-.03-.095-.175-.103-.248-.107-.024-.001-.04-.002-.04-.006-.002-.007.056-.025.229-.078zm1.228-2.294c.422-.21-.707.13-1.228.29-.173.052-.231.07-.23.077 0 .004.017.005.041.006.073.004.218.012.247.107.044.143.438-.078.811-.287.127-.07.252-.14.359-.193zm-1.571-.587c.36-.11 1.138-.343.854-.175-.072.042-.155.1-.24.157-.249.171-.512.352-.556.21-.03-.096-.134-.116-.186-.126-.018-.004-.03-.006-.03-.01-.001-.007.04-.02.158-.056zm.23 3.814c-.414 0 0-.326 0-.326h.212c.073 0 .138-.03.224-.07.164-.075.402-.185.913-.185.779 0-.937.581-1.35.581z" fill="#409100"/>
  </g>
</svg>
